Adwaita++-Light/panel/16/signal-tray.svg

<svg height="16" width="16" xmlns="http://www.w3.org/2000/svg">
  <g fill="#444">
    <path d="m8 1a7 6.5 0 0 0 -7 6.5 7 6.5 0 0 0 7 6.5 7 6.5 0 0 0 7-6.5 7 6.5 0 0 0 -7-6.5zm-.0195312 2h.0195312.0195312l.46875.0195312.0175782.0019532.0195312.0039062.4570313.0605469.0273437.0058594.0253906.0078125.1308594.0351562-.2246094.7890625-.0957031-.0273437-.4179687-.0566406-.4277344-.0195313-.4296875.0195313-.1152344.0136718-.1132812-.8105468.1308593-.0175782.0214844-.0039062.015625-.0019532zm-1.5078126.2363281.2265626.7851563-.3339844.0957031-.7109375.34375-.2988281.2207031-.5-.65625.3320312-.2441406.0292969-.0234375.0351562-.015625.7792969-.3789063.0351562-.015625.0351563-.0097656zm3.5624998.1601563.712891.3457031.033203.015625.03125.0234375.679688.5.029296.0234375.027344.0292969.017578.0175781-.404297.359375-.169921.2265625-.646485-.4765625-.6796874-.3300781zm-5.8554685 1.2285156.6171875.5507812-.2714844.2949219-.1972656.2929688-.1738281.3222656-.1445313.3496094-.7734375-.3066407.1542969-.3710937.0058594-.0214844.0117187-.015625.1933594-.359375.0097656-.0195312.0117188-.0175781.2285156-.3378907.0195313-.0234375.0175781-.0234375zm7.9804685.3847656.216797.3144532.011719.0175781.009766.0175781.193359.359375.009765.0175781.009766.0195313.154297.3769531.007813.0234375.003906.0195312.115234.390625.00586.0234376.001953.0234374.005859.0371094-.769531.1289063-.048828.0117187-.001953-.0058594h-.001954l-.001953-.015625-.099609-.3535156-.136719-.3300781-.173828-.3222656-.203125-.2988281zm-9.1328122 2.0039063.4472656.0742187.3808594.0195313-.0214844.3964843.0195312.3710938.0625.3613281.0996094.3496094-.8007812.2246094-.1074219-.3691407-.0039063-.0214843-.0039062-.0234375-.0722656-.40625-.0039063-.0214844v-.0214844l-.0234375-.4199218v-.0234376-.0214843l.0234375-.4179688v-.0234375l.0039063-.0234375zm9.1386722.46875.833984.0449219-.023438.4179687-.001953.0234375-.003906.0214844-.070312.40625-.003907.0214844-.003906.0234374-.115234.3925782-.003906.0195312-.009766.0214844-.152344.3691406-.771484-.3046875.142578-.3476562.101562-.3554688.0625-.3613281zm-7.8496098 1.7460937.015625.0214844.1933594.2871094.5117188.5585936.2949218.216797-.5.654297-.3242187-.240235-.03125-.023437-.0273437-.029297-.5605469-.603516-.0175781-.02539-.0195313-.023438-.2285156-.3359371-.0117188-.0175781-.0097656-.0214844-.0078125-.0117188.4980469-.2597656zm7.1757818.2910156.617187.5507808-.560547.603516-.027344.029297-.029296.023437-.669922.494141-.5-.654297.638672-.470703zm-5.5195318 1.1816408.3925782.191406.7851562.220703.2753906.03711-.1132812.8125-.2949219-.039063-.0273437-.005859-.0273438-.007813-.8613281-.240234-.0351563-.007813-.0351562-.019531-.4277344-.203125zm3.6992188.18164.0449219.158204.2929691.583984-.041016.019531-.0351562.017578-.0371094.007813-.8613282.240234-.0253906.007813-.0273437.005859-.4570313.060547-.0195312.001953-.0175782.001953-.2695312.011719-.0371094-.818359.2460938-.009766.4199218-.058594.7910157-.220703.0019531-.001953z"/>
    <path d="m3 12h2.4685314l-2.4685314 3z"/>
  </g>
</svg>

<svg xmlns="http://www.w3.org/2000/svg" width="16" height="16" version="1.1">
 <defs>
  <style id="current-color-scheme" type="text/css">
   .ColorScheme-Text { color:#444444; } .ColorScheme-Highlight { color:#4285f4; }
  </style>
 </defs>
 <path style="fill:currentColor" class="ColorScheme-Text" d="M 8 1 A 7 6.5 0 0 0 1 7.5 A 7 6.5 0 0 0 8 14 A 7 6.5 0 0 0 15 7.5 A 7 6.5 0 0 0 8 1 z M 7.9804688 3 L 8 3 L 8.0195312 3 L 8.4882812 3.0195312 L 8.5058594 3.0214844 L 8.5253906 3.0253906 L 8.9824219 3.0859375 L 9.0097656 3.0917969 L 9.0351562 3.0996094 L 9.1660156 3.1347656 L 8.9414062 3.9238281 L 8.8457031 3.8964844 L 8.4277344 3.8398438 L 8 3.8203125 L 7.5703125 3.8398438 L 7.4550781 3.8535156 L 7.3417969 3.0429688 L 7.4726562 3.0253906 L 7.4941406 3.0214844 L 7.5097656 3.0195312 L 7.9804688 3 z M 6.4726562 3.2363281 L 6.6992188 4.0214844 L 6.3652344 4.1171875 L 5.6542969 4.4609375 L 5.3554688 4.6816406 L 4.8554688 4.0253906 L 5.1875 3.78125 L 5.2167969 3.7578125 L 5.2519531 3.7421875 L 6.03125 3.3632812 L 6.0664062 3.3476562 L 6.1015625 3.3378906 L 6.4726562 3.2363281 z M 10.035156 3.3964844 L 10.748047 3.7421875 L 10.78125 3.7578125 L 10.8125 3.78125 L 11.492188 4.28125 L 11.521484 4.3046875 L 11.548828 4.3339844 L 11.566406 4.3515625 L 11.162109 4.7109375 L 10.992188 4.9375 L 10.345703 4.4609375 L 9.6660156 4.1308594 L 10.035156 3.3964844 z M 4.1796875 4.625 L 4.796875 5.1757812 L 4.5253906 5.4707031 L 4.328125 5.7636719 L 4.1542969 6.0859375 L 4.0097656 6.4355469 L 3.2363281 6.1289062 L 3.390625 5.7578125 L 3.3964844 5.7363281 L 3.4082031 5.7207031 L 3.6015625 5.3613281 L 3.6113281 5.3417969 L 3.6230469 5.3242188 L 3.8515625 4.9863281 L 3.8710938 4.9628906 L 3.8886719 4.9394531 L 4.1796875 4.625 z M 12.160156 5.0097656 L 12.376953 5.3242188 L 12.388672 5.3417969 L 12.398438 5.359375 L 12.591797 5.71875 L 12.601562 5.7363281 L 12.611328 5.7558594 L 12.765625 6.1328125 L 12.773438 6.15625 L 12.777344 6.1757812 L 12.892578 6.5664062 L 12.898438 6.5898438 L 12.900391 6.6132812 L 12.90625 6.6503906 L 12.136719 6.7792969 L 12.087891 6.7910156 L 12.085938 6.7851562 L 12.083984 6.7851562 L 12.082031 6.7695312 L 11.982422 6.4160156 L 11.845703 6.0859375 L 11.671875 5.7636719 L 11.46875 5.4648438 L 12.160156 5.0097656 z M 3.0273438 7.0136719 L 3.4746094 7.0878906 L 3.8554688 7.1074219 L 3.8339844 7.5039062 L 3.8535156 7.875 L 3.9160156 8.2363281 L 4.015625 8.5859375 L 3.2148438 8.8105469 L 3.1074219 8.4414062 L 3.1035156 8.4199219 L 3.0996094 8.3964844 L 3.0273438 7.9902344 L 3.0234375 7.96875 L 3.0234375 7.9472656 L 3 7.5273438 L 3 7.5039062 L 3 7.4824219 L 3.0234375 7.0644531 L 3.0234375 7.0410156 L 3.0273438 7.0175781 L 3.0273438 7.0136719 z M 12.166016 7.4824219 L 13 7.5273438 L 12.976562 7.9453125 L 12.974609 7.96875 L 12.970703 7.9902344 L 12.900391 8.3964844 L 12.896484 8.4179688 L 12.892578 8.4414062 L 12.777344 8.8339844 L 12.773438 8.8535156 L 12.763672 8.875 L 12.611328 9.2441406 L 11.839844 8.9394531 L 11.982422 8.5917969 L 12.083984 8.2363281 L 12.146484 7.875 L 12.166016 7.4824219 z M 4.3164062 9.2285156 L 4.3320312 9.25 L 4.5253906 9.5371094 L 5.0371094 10.095703 L 5.3320312 10.3125 L 4.8320312 10.966797 L 4.5078125 10.726562 L 4.4765625 10.703125 L 4.4492188 10.673828 L 3.8886719 10.070312 L 3.8710938 10.044922 L 3.8515625 10.021484 L 3.6230469 9.6855469 L 3.6113281 9.6679688 L 3.6015625 9.6464844 L 3.59375 9.6347656 L 4.0917969 9.375 L 4.3164062 9.2285156 z M 11.492188 9.5195312 L 12.109375 10.070312 L 11.548828 10.673828 L 11.521484 10.703125 L 11.492188 10.726562 L 10.822266 11.220703 L 10.322266 10.566406 L 10.960938 10.095703 L 11.492188 9.5195312 z M 5.9726562 10.701172 L 6.3652344 10.892578 L 7.1503906 11.113281 L 7.4257812 11.150391 L 7.3125 11.962891 L 7.0175781 11.923828 L 6.9902344 11.917969 L 6.9628906 11.910156 L 6.1015625 11.669922 L 6.0664062 11.662109 L 6.03125 11.642578 L 5.6035156 11.439453 L 5.9726562 10.701172 z M 9.671875 10.882812 L 9.7167969 11.041016 L 10.009766 11.625 L 9.96875 11.644531 L 9.9335938 11.662109 L 9.8964844 11.669922 L 9.0351562 11.910156 L 9.0097656 11.917969 L 8.9824219 11.923828 L 8.5253906 11.984375 L 8.5058594 11.986328 L 8.4882812 11.988281 L 8.21875 12 L 8.1816406 11.181641 L 8.4277344 11.171875 L 8.8476562 11.113281 L 9.6386719 10.892578 L 9.640625 10.890625 L 9.671875 10.882812 z"/>
 <path style="fill:currentColor" class="ColorScheme-Text" d="M 3,12 H 5.4685314 L 3,15 Z"/>
</svg>
